X:1
T:Andrew’s Hornpipe [1]
M:2/4
L:1/8
R:Hornpipe
B:Elias Howe – Second Part of the Musician’s Companion (1843, p. 53)
Z:AK/Fiddler’s Companion
K:E
B|e/d/e/f/ g/B/a/g/|f/e/d/e/ f/B/c/d/|e/d/e/f/ g/f/g/e/|f^abB|
e/d/e/f/ g/B/a/g/|f/e/d/e/ f/B/c/d/|e/d/e/g/ f/e/d/f/|ege:|
|:B|.e.g.b.e'|egbg|f/B/g/B/ a/g/f/e/|d/e/f/g/ f/B/c/d/|
.d.g.b.e'|egbg|f/B/g/B/ a/g/f/e/|d/e/f/[d/g/] e:|]

